X:39
T:Lucy Campbell
R:reel
E:7
M:C|
I:speed 350
K:D
dB|AD~D2 A2 dB|ADFA BE~E2|AD~D2 fgfe|dBAF AD~D2|\
AD~D2 A2 dB|(3ABA FA BE~E2|ADFA fgfe|dBAF AD~D2||*
dBAB defe|d2cA BE~E2|dBAB defe|dBAF AD~D2|\
dBAB defe|dB~B2 gB~B2|dBAB defe|dBAF AD~D2||*
~a3f defg|afaf bgeg|faaf defe|dBAF AD~D2|\
~a3f defg|a3f bgef|~g3e ~f3e|dBAF AD~D2||*
df~f2 dfef|df~f2 afef|dffe ~f3e|dBAF AD~D2|\
df~f2 dfef|df~f2 afef|~g3e ~f3e|dBAF AD~D2||**
